svg/aws-ec2-t4g.svg

<?xml version="1.0" encoding="UTF-8"?>
<svg xmlns="http://www.w3.org/2000/svg" xmlns:xlink="http://www.w3.org/1999/xlink" width="32" height="32" viewBox="0 0 32 32">
<path fill-rule="evenodd" fill="rgb(83.137255%, 35.686275%, 2.745098%)" fill-opacity="1" d="M 20.253906 15.570312 C 20.433594 15.324219 20.71875 15.199219 21.097656 15.199219 C 21.464844 15.199219 21.808594 15.308594 22.132812 15.535156 L 22.132812 17.921875 C 21.835938 18.15625 21.46875 18.285156 21.089844 18.289062 C 20.347656 18.289062 19.976562 17.765625 19.976562 16.71875 C 19.976562 16.203125 20.070312 15.820312 20.253906 15.570312 M 20.761719 19.136719 C 21.269531 19.140625 21.757812 18.953125 22.132812 18.613281 L 22.132812 19.015625 C 22.132812 19.5 22.027344 19.851562 21.816406 20.066406 C 21.605469 20.28125 21.265625 20.386719 20.796875 20.386719 C 20.339844 20.386719 19.820312 20.289062 19.238281 20.097656 L 19.238281 20.882812 C 19.746094 21.136719 20.304688 21.265625 20.871094 21.265625 C 21.628906 21.265625 22.210938 21.058594 22.621094 20.648438 C 23.03125 20.238281 23.234375 19.65625 23.234375 18.902344 L 23.234375 14.480469 L 22.300781 14.480469 L 22.207031 14.910156 C 21.832031 14.539062 21.324219 14.335938 20.796875 14.339844 C 20.402344 14.339844 20.054688 14.441406 19.761719 14.648438 C 19.460938 14.863281 19.226562 15.160156 19.089844 15.503906 C 18.925781 15.902344 18.84375 16.328125 18.855469 16.757812 C 18.855469 17.480469 19.03125 18.054688 19.375 18.488281 C 19.71875 18.921875 20.183594 19.136719 20.761719 19.136719 M 10.332031 13.695312 L 8.304688 13.695312 L 8.304688 12.761719 L 13.496094 12.761719 L 13.496094 13.695312 L 11.46875 13.695312 L 11.46875 19.230469 L 10.332031 19.230469 Z M 16.269531 14.164062 L 16.269531 17.007812 L 14.320312 17.007812 Z M 13.210938 17.886719 L 16.269531 17.886719 L 16.269531 19.230469 L 17.382812 19.230469 L 17.382812 17.886719 L 18.25 17.886719 L 18.25 17.007812 L 17.382812 17.007812 L 17.382812 12.761719 L 16.226562 12.761719 L 13.210938 17.054688 Z M 6 26 L 26 26 L 26 6 L 6 6 Z M 30.667969 8.667969 L 30.667969 7.332031 L 27.332031 7.332031 L 27.332031 5.332031 C 27.332031 4.964844 27.035156 4.667969 26.667969 4.667969 L 24.667969 4.667969 L 24.667969 1.332031 L 23.332031 1.332031 L 23.332031 4.667969 L 20.667969 4.667969 L 20.667969 1.332031 L 19.332031 1.332031 L 19.332031 4.667969 L 16.667969 4.667969 L 16.667969 1.332031 L 15.332031 1.332031 L 15.332031 4.667969 L 12.667969 4.667969 L 12.667969 1.332031 L 11.332031 1.332031 L 11.332031 4.667969 L 8.667969 4.667969 L 8.667969 1.332031 L 7.332031 1.332031 L 7.332031 4.667969 L 5.332031 4.667969 C 4.964844 4.667969 4.667969 4.964844 4.667969 5.332031 L 4.667969 7.332031 L 1.332031 7.332031 L 1.332031 8.667969 L 4.667969 8.667969 L 4.667969 11.332031 L 1.332031 11.332031 L 1.332031 12.667969 L 4.667969 12.667969 L 4.667969 15.332031 L 1.332031 15.332031 L 1.332031 16.667969 L 4.667969 16.667969 L 4.667969 19.332031 L 1.332031 19.332031 L 1.332031 20.667969 L 4.667969 20.667969 L 4.667969 23.332031 L 1.332031 23.332031 L 1.332031 24.667969 L 4.667969 24.667969 L 4.667969 26.667969 C 4.667969 27.035156 4.964844 27.332031 5.332031 27.332031 L 7.332031 27.332031 L 7.332031 30.667969 L 8.667969 30.667969 L 8.667969 27.332031 L 11.332031 27.332031 L 11.332031 30.667969 L 12.667969 30.667969 L 12.667969 27.332031 L 15.332031 27.332031 L 15.332031 30.667969 L 16.667969 30.667969 L 16.667969 27.332031 L 19.332031 27.332031 L 19.332031 30.667969 L 20.667969 30.667969 L 20.667969 27.332031 L 23.332031 27.332031 L 23.332031 30.667969 L 24.667969 30.667969 L 24.667969 27.332031 L 26.667969 27.332031 C 27.035156 27.332031 27.332031 27.035156 27.332031 26.667969 L 27.332031 24.667969 L 30.667969 24.667969 L 30.667969 23.332031 L 27.332031 23.332031 L 27.332031 20.667969 L 30.667969 20.667969 L 30.667969 19.332031 L 27.332031 19.332031 L 27.332031 16.667969 L 30.667969 16.667969 L 30.667969 15.332031 L 27.332031 15.332031 L 27.332031 12.667969 L 30.667969 12.667969 L 30.667969 11.332031 L 27.332031 11.332031 L 27.332031 8.667969 Z M 30.667969 8.667969 "/>
</svg>

<svg role="img" viewBox="0 0 32 32" height="32" width="32" xmlns="http://www.w3.org/2000/svg"><path d="M20.254 15.57c.18-.246.465-.37.844-.37.367 0 .71.109 1.035.335v2.387a1.712 1.712 0 0 1-1.043.367c-.742 0-1.113-.523-1.113-1.57 0-.516.093-.899.277-1.149m.508 3.567c.508.004.996-.184 1.37-.524v.403c0 .484-.105.836-.316 1.05-.21.215-.55.32-1.02.32-.456 0-.976-.097-1.558-.288v.785a3.647 3.647 0 0 0 1.633.383c.758 0 1.34-.207 1.75-.618.41-.41.613-.992.613-1.746V14.48h-.933l-.094.43a1.981 1.981 0 0 0-1.41-.57 1.75 1.75 0 0 0-1.035.308 1.93 1.93 0 0 0-.672.856 3.072 3.072 0 0 0-.235 1.254c0 .722.176 1.297.52 1.73.344.434.809.649 1.387.649m-10.43-5.442H8.305v-.933h5.191v.933H11.47v5.535h-1.137Zm5.938.47v2.843h-1.95Zm-3.06 3.722h3.06v1.343h1.113v-1.343h.867v-.88h-.867v-4.245h-1.156l-3.016 4.293ZM6 26h20V6H6ZM30.668 8.668V7.332h-3.336v-2a.664.664 0 0 0-.664-.664h-2V1.332h-1.336v3.336h-2.664V1.332h-1.336v3.336h-2.664V1.332h-1.336v3.336h-2.664V1.332h-1.336v3.336H8.668V1.332H7.332v3.336h-2a.664.664 0 0 0-.664.664v2H1.332v1.336h3.336v2.664H1.332v1.336h3.336v2.664H1.332v1.336h3.336v2.664H1.332v1.336h3.336v2.664H1.332v1.336h3.336v2c0 .367.297.664.664.664h2v3.336h1.336v-3.336h2.664v3.336h1.336v-3.336h2.664v3.336h1.336v-3.336h2.664v3.336h1.336v-3.336h2.664v3.336h1.336v-3.336h2a.664.664 0 0 0 .664-.664v-2h3.336v-1.336h-3.336v-2.664h3.336v-1.336h-3.336v-2.664h3.336v-1.336h-3.336v-2.664h3.336v-1.336h-3.336V8.668Zm0 0" fill="rgb(83.137255%, 35.686275%, 2.745098%)" fill-rule="evenodd"/></svg>
